X: 132
T: His Horses He Granted Me
C: Teton Sioux band 1911-1914
N: Derived from sioux131.krn
O: South Dakota, U.S.A.
N: Teton Sioux Music by Frances Densmore, 1918
Z: transcribed to **kern format by Craig Sapp
L: 1/8
M: 3/4
Q: 1/4=58
K: A clef=bass
%%linebreak <none>
E< EE2E/ D3/ | 
B,2A,2A, A, | 
D< D B, D- D/ B,3/ ||  
[M:2/4]A, F,A,2 | 
E,< E, E, E, | 
E, E,-E,2 | 
E, (E/> D/) E E | 
E< D B, B, | 
B,< A, A, A, ||  
[M:3/4]D< D B, D D/ B,3/ ||  
[M:2/4]A, F,A,2 ||  
[M:3/4]E,< E, E, E,E,2 :|]  



